X:1
T: Glengary
C:
R:Strathspey
Q: 128
K:A
M:4/4
L:1/16
|:A2|EC3 C3B, A,3C E3C|EC3 C3c B3A F3A|EC3 C3B, A,3C E3C|c3B A3F EC3 B,2A2|
EC3 C3B, A,3C E3C|EC3 C3c B3A F3A|EC3 C3B, A,3C E3C|c3B A3F EC3 B,2A2|
C3E A3E F3E A3E|C3E A3E F3E C3E|C3E A3E F3E A3E|c3B A3F EC3 B,3E|
C3E A3E F3E A3E|C3E A3c ec3 d3B|c3a e3c d3B c3A|B3G A3F EC3 B,2:|
